assets/img/braze_icons/credit-card-refresh.svg

<svg fill="none" height="24" viewBox="0 0 24 24" width="24" xmlns="http://www.w3.org/2000/svg"><path clip-rule="evenodd" d="m10.2929 1.29289c.3905-.390521 1.0237-.390521 1.4142 0l2 2c.1953.19527.2929.45119.2929.70711h-2.4142l-1.2929-1.29289c-.39053-.39053-.39053-1.02369 0-1.41422zm1.2929 2.70711-1.2929 1.29289c-.39053.39053-.39053 1.02369 0 1.41422.3905.39052 1.0237.39052 1.4142 0l2-2c.1953-.19526.2929-.45119.2929-.70711h4.8385c.5272-.00001.982-.00003 1.3565.03057.3954.03231.7886.10362 1.167.29642.5645.28762 1.0234.74656 1.311 1.31104.1928.37838.2641.7716.2964 1.16695.0306.37456.0306.82932.0306 1.35646 0 .46312-.3754.83856-.8386.83856h-20.32281c-.46314 0-.83859-.37545-.83859-.83859-.000015-.5271-.000028-.98189.03057-1.35644.0323-.39534.10362-.78856.29641-1.16694.28762-.56448.74657-1.02343 1.31105-1.31105.37838-.19279.7716-.26411 1.16695-.29641.37455-.0306.82936-.03059 1.35648-.03057zm2.1213 13.2929c.3905.3905.3905 1.0237 0 1.4142l-1.2929 1.2929h-2.4142c0-.2559.0976-.5118.2929-.7071l2-2c.3905-.3905 1.0237-.3905 1.4142 0zm-3.7071 2.7071h-4.83871c-.527 0-.98182 0-1.35631-.0306-.39535-.0323-.78857-.1036-1.16695-.2964-.56448-.2876-1.02343-.7465-1.31105-1.311-.19279-.3784-.26411-.7716-.29641-1.167-.030598-.3745-.030585-.8293-.03057-1.3564v-3.2386c0-.5601 0-.8401.10899-1.054.09588-.1882.24886-.3411.43702-.437.21391-.109.49394-.109 1.05399-.109h18.8c.5601 0 .8401 0 1.054.109.1882.0959.3411.2488.437.437.109.2139.109.4939.109 1.054v3.2386c0 .5271 0 .9819-.0306 1.3564-.0323.3954-.1036.7886-.2964 1.167-.2876.5645-.7465 1.0234-1.311 1.311-.3784.1928-.7716.2641-1.167.2964-.3745.0306-.8293.0306-1.3564.0306h-6.4244l1.2929 1.2929c.3905.3905.3905 1.0237 0 1.4142s-1.0237.3905-1.4142 0l-2-2c-.1953-.1953-.2929-.4512-.2929-.7071z" fill="#801ed7" fill-rule="evenodd"/></svg>

<svg width="24" height="24" viewBox="0 0 24 24" fill="none" xmlns="http://www.w3.org/2000/svg">
<path fill-rule="evenodd" clip-rule="evenodd" d="M10.2929 1.29289C10.6834 0.902369 11.3166 0.902369 11.7071 1.29289L13.7071 3.29289C13.9024 3.48816 14 3.74408 14 4L11.5858 4L10.2929 2.70711C9.90237 2.31658 9.90237 1.68342 10.2929 1.29289ZM11.5858 4L10.2929 5.29289C9.90237 5.68342 9.90237 6.31658 10.2929 6.70711C10.6834 7.09763 11.3166 7.09763 11.7071 6.70711L13.7071 4.70711C13.9024 4.51185 14 4.25592 14 4L18.8385 4C19.3657 3.99999 19.8205 3.99997 20.195 4.03057C20.5904 4.06288 20.9836 4.13419 21.362 4.32699C21.9265 4.61461 22.3854 5.07355 22.673 5.63803C22.8658 6.01641 22.9371 6.40963 22.9694 6.80498C23 7.17954 23 7.6343 23 8.16144C23 8.62456 22.6246 9 22.1614 9H1.83859C1.37545 9 1 8.62455 1 8.16141C0.999985 7.63431 0.999972 7.17952 1.03057 6.80497C1.06287 6.40963 1.13419 6.01641 1.32698 5.63803C1.6146 5.07355 2.07355 4.6146 2.63803 4.32698C3.01641 4.13419 3.40963 4.06287 3.80498 4.03057C4.17953 3.99997 4.63434 3.99998 5.16146 4L11.5858 4ZM13.7071 17.2929C14.0976 17.6834 14.0976 18.3166 13.7071 18.7071L12.4142 20H10C10 19.7441 10.0976 19.4882 10.2929 19.2929L12.2929 17.2929C12.6834 16.9024 13.3166 16.9024 13.7071 17.2929ZM10 20H5.16129C4.63429 20 4.17947 20 3.80498 19.9694C3.40963 19.9371 3.01641 19.8658 2.63803 19.673C2.07355 19.3854 1.6146 18.9265 1.32698 18.362C1.13419 17.9836 1.06287 17.5904 1.03057 17.195C0.999972 16.8205 0.999985 16.3657 1 15.8386V12.6C1 12.0399 1 11.7599 1.10899 11.546C1.20487 11.3578 1.35785 11.2049 1.54601 11.109C1.75992 11 2.03995 11 2.6 11H21.4C21.9601 11 22.2401 11 22.454 11.109C22.6422 11.2049 22.7951 11.3578 22.891 11.546C23 11.7599 23 12.0399 23 12.6V15.8386C23 16.3657 23 16.8205 22.9694 17.195C22.9371 17.5904 22.8658 17.9836 22.673 18.362C22.3854 18.9265 21.9265 19.3854 21.362 19.673C20.9836 19.8658 20.5904 19.9371 20.195 19.9694C19.8205 20 19.3657 20 18.8386 20L12.4142 20L13.7071 21.2929C14.0976 21.6834 14.0976 22.3166 13.7071 22.7071C13.3166 23.0976 12.6834 23.0976 12.2929 22.7071L10.2929 20.7071C10.0976 20.5118 10 20.2559 10 20Z" fill="#801ED7"/>
</svg>
